icons/airplay.svg

<svg width="24" height="24" viewBox="0 0 24 24" fill="none" xmlns="http://www.w3.org/2000/svg">
<path fill-rule="evenodd" clip-rule="evenodd" d="M2 4C2 3.44772 2.44772 3 3 3H21C21.5523 3 22 3.44772 22 4V18C22 18.5523 21.5523 19 21 19H19C18.4477 19 18 18.5523 18 18C18 17.4477 18.4477 17 19 17H20V5H4V17H5C5.55228 17 6 17.4477 6 18C6 18.5523 5.55228 19 5 19H3C2.44772 19 2 18.5523 2 18V4ZM12 14C12.3038 14 12.5911 14.1381 12.7809 14.3753L16.7809 19.3753C17.021 19.6755 17.0678 20.0867 16.9013 20.4332C16.7348 20.7797 16.3844 21 16 21H8C7.61559 21 7.26522 20.7797 7.0987 20.4332C6.93218 20.0867 6.979 19.6755 7.21913 19.3753L11.2191 14.3753C11.4089 14.1381 11.6962 14 12 14ZM10.0806 19H13.9194L12 16.6008L10.0806 19Z" fill="black"/>
</svg>

<svg
  width="24"
  height="24"
  viewBox="0 0 24 24"
  xmlns="http://www.w3.org/2000/svg"
>
  <path
    fill-rule="evenodd"
    clip-rule="evenodd"
    d="M2 4a1 1 0 0 1 1-1h18a1 1 0 0 1 1 1v14a1 1 0 0 1-1 1h-2a1 1 0 1 1 0-2h1V5H4v12h1a1 1 0 1 1 0 2H3a1 1 0 0 1-1-1V4zm10 10a1 1 0 0 1 .78.375l4 5A1 1 0 0 1 16 21H8a1 1 0 0 1-.78-1.625l4-5A1 1 0 0 1 12 14zm-1.92 5h3.84L12 16.6 10.08 19z"
  />
</svg>
